X: 1
T:Come to the Raffle -- Jig
M:6/8
L:1/8
C:JAS. HAND.
R:jig
B:Ryan's Mammoth Collection
N:84 429
Z:Contributed by Ray Davies,  ray:davies99.freeserve.co.uk
K:G
uD|\
GBd cAF | .G(ge) dBG | (c>"4"e).c BdB | ABG F>ED |
GBd cAF | Gge dBd | c"4"ec Bag | {g}fef g2:|
|:ud|\
gdB gdB | gfa gdB | {a}gfg eag | fdd def |
gbg faf | ege def | gdB {B}AGA | BGG G2:|
